X: 72
T: Mr Crook's Favourite
R: jig
Q: "Slow"
B: William Shepherd "1st Collection" 1793 p.7 #2
F: http://imslp.org/wiki/File:PMLP73094-Shepherd_Collections_HMT.pdf
C: William Shepherd (17??-1812)
Z: 2012 John Chambers <jc:trillian.mit.edu>
M: 6/8
L: 1/8
K: Eb
G,/B,/ |"_Pomposa"\
.E.E.E .EDF | FBA AGA/B/ | cAF BGE | F/G/A/C/F/E/ EDG,/B,/ |\
.E.E.E .EDF | FGA AGA/B/ | cAF BGE | cCD TE2 :|
|: B |\
.e.e.e .edc | Tc=Bc G2c | cBA GFE | D/F/B/G/F/E/ DCB, |\
.e.e.e .edc | Tc=Bc G2c | GFE DFA | GG,=B, ~C2 :|
